X:89
T:Trio To The Duke Of York March(Second). Le4.089
B:L.Leadley MS#4 c1850
Z:Village Music Project, 2016 Steve Mansfield
M:C
N:Clearly meant to be a second part to the previous tune but there is a mistake in bar numbers
L:1/8
Q:2/4=75
K:A
A3c BA BG | A2c2 A2c2 | c3c c3A | d2e2 f2ed |
c2(ed) (cBBA) | A4 G2z2 :: G3A BABG | A2c2 e2g2 |
G3A BABG | A2A>A A2z2 | d3e f2ed | c3c c3e |
d2c2 Td2B2 | c2AA A2z2 :|

